X: 107205
T: MISS MACKENZIE OF GAIRLOCH
Q: "Strathspey."
R: Strathspey.
%R:strathspey
Z: 2017 by John Chambers <jc:trillian.mit.edu>
B: Kerr's Merrie Melodies v.1 p.7 s.2 #5
M: C
L: 1/8
K: Am
a |\
A/A/A B>d e>d (e<g) | G/G/G B<d g>e (d<B) |\
A/A/A B>d e>d (e<g) | G/G/G B<d e<A A :|\
ug |\
va>ug e<a e>d ^c<A | g>e d<g dc B<G |
a>g e<a e>d ^c<A | G/G/G B>d (e<A) A2 |\
a>g e<a e>d ^c<A | g>e d<g d>c B<G |\
A>Bc>d e>d e<a | g>eB>d e<A A |]

%%sep 1 1 500
%%sep 1 1 500

